packages/icons/src/emoji/svg/school.svg

<svg width="120" height="120" viewBox="0 0 120 120" fill="none" xmlns="http://www.w3.org/2000/svg">
<path d="M10.7061 39.0281H110.7V120H10.7061V39.0281Z" fill="#006CA2"/>
<path d="M42.5254 11.5032H78.1316V45.5907H42.5254V11.5032Z" fill="white"/>
<path d="M106.706 32.0999H89.8596C87.9564 32.0999 86.2689 31.8562 85.1814 30.9655C84.2064 30.1687 83.8877 28.678 83.8314 27.4124V15.6843C83.8314 14.6437 83.0908 13.378 82.1814 12.8718L61.6408 1.39678C60.7408 0.890527 59.2502 0.890527 58.3408 1.39678L37.7908 12.8718C36.8814 13.378 36.1408 14.6437 36.1408 15.6843V27.6655C36.0564 28.8749 35.7189 30.2249 34.8096 30.9749C33.7314 31.8655 32.0346 32.1093 30.1408 32.1093H13.3033C8.19394 32.1093 4.0127 36.2905 4.0127 41.3905V120H44.4377V107.831C44.4377 104.981 46.7627 102.647 49.6127 102.647H70.3783C73.2283 102.647 75.5627 104.972 75.5627 107.831V120H115.997V41.3905C115.988 36.2812 111.816 32.0999 106.706 32.0999ZM27.0752 89.7937H15.5252V75.0749H27.0752V89.7937ZM27.0752 66.403H15.5252V51.6843H27.0752V66.403ZM46.4252 89.7937H34.8752V75.0749H46.4252V89.7937ZM46.4252 66.403H34.8752V51.6843H46.4252V66.403ZM65.7658 89.7937H54.2158V75.0749H65.7658V89.7937ZM65.7658 66.403H54.2158V51.6843H65.7658V66.403ZM59.9908 38.7843C57.8346 38.7843 55.8096 38.2593 54.0096 37.3593C51.6752 36.1874 49.7346 34.3593 48.4314 32.1093C47.2877 30.1405 46.6314 27.8624 46.6314 25.4249C46.6314 18.0374 52.6127 12.0562 60.0002 12.0562C67.3783 12.0562 73.3689 18.0468 73.3689 25.4249C73.3689 27.8624 72.7033 30.1405 71.5596 32.1093C70.3834 34.1364 68.6961 35.8196 66.6661 36.9909C64.6362 38.1622 62.3345 38.7805 59.9908 38.7843ZM85.1158 89.7937H73.5658V75.0749H85.1158V89.7937ZM85.1158 66.403H73.5658V51.6843H85.1158V66.403ZM104.466 89.7937H92.9064V75.0749H104.456V89.7937H104.466ZM104.466 66.403H92.9064V51.6843H104.456V66.403H104.466Z" fill="#F79329"/>
<path d="M61.284 23.4281V13.7812H58.6777V23.4375C58.0684 23.8406 57.6559 24.4875 57.609 25.2656L51.6465 28.65L52.9402 30.9187L58.9027 27.525C59.2402 27.6938 59.5965 27.8156 59.9996 27.8156C60.6411 27.8156 61.2563 27.5608 61.7099 27.1072C62.1635 26.6536 62.4184 26.0384 62.4184 25.3969C62.409 24.5625 61.9496 23.8594 61.284 23.4281Z" fill="#2F2F2F"/>
</svg>

<svg xmlns="http://www.w3.org/2000/svg" fill="none" aria-hidden="true" data-slot="icon" viewBox="0 0 120 120"><path fill="#006CA2" d="M10.706 39.028H110.7V120H10.706z"/><path fill="#fff" d="M42.525 11.503h35.607v34.088H42.525z"/><path fill="#F79329" d="M106.706 32.1H89.86c-1.904 0-3.591-.244-4.679-1.135-.975-.796-1.293-2.287-1.35-3.553V15.684c0-1.04-.74-2.306-1.65-2.812L61.641 1.397c-.9-.506-2.39-.506-3.3 0L37.79 12.872c-.91.506-1.65 1.772-1.65 2.812v11.982c-.085 1.209-.422 2.559-1.331 3.309-1.079.89-2.775 1.134-4.67 1.134H13.304c-5.11 0-9.29 4.182-9.29 9.282V120h40.425v-12.169c0-2.85 2.325-5.184 5.175-5.184h20.765a5.195 5.195 0 0 1 5.185 5.184V120h40.434V41.39c-.009-5.109-4.181-9.29-9.291-9.29m-79.63 57.694h-11.55v-14.72h11.55zm0-23.391h-11.55V51.684h11.55zm19.35 23.39h-11.55V75.076h11.55zm0-23.39h-11.55V51.684h11.55zm19.34 23.39h-11.55V75.076h11.55zm0-23.39h-11.55V51.684h11.55zM59.99 38.784a13.3 13.3 0 0 1-5.981-1.425 13.4 13.4 0 0 1-5.579-5.25 13.25 13.25 0 0 1-1.8-6.684c0-7.388 5.982-13.369 13.37-13.369 7.377 0 13.368 5.99 13.368 13.369a13.26 13.26 0 0 1-1.81 6.684 13.4 13.4 0 0 1-11.568 6.675m25.125 51.01h-11.55v-14.72h11.55zm0-23.391h-11.55V51.684h11.55zm19.35 23.39h-11.56V75.076h11.55v14.719zm0-23.39h-11.56V51.684h11.55v14.719z"/><path fill="#2F2F2F" d="M61.284 23.428v-9.647h-2.606v9.657a2.34 2.34 0 0 0-1.069 1.828l-5.962 3.384 1.293 2.269 5.963-3.394c.337.169.694.29 1.097.29a2.42 2.42 0 0 0 2.418-2.418c-.009-.834-.468-1.538-1.134-1.969"/></svg>
